X:1
T:Title
%%score 1 2
L:1/8
Q:1/4=108
M:4/4
K:C
V:1 treble nm="Grand Piano, Soprano"
V:2 bass nm="Choir Pad, The Glorious Day Is Coming"
V:1
 [CE]>[DF] [EG]2 [Ec]2 [Fd]2 | [Ec]2 [Fc]2 [FB]4 | [DB][Ec] [Fd]2 [Fd]2 [Ge]2 | [Fd]2 [Ec]6 | %4
w: By~John~Robson~Sweney * * * *||||
 [EG]2 [FA]2- [FA][Fc] [Fc]2 | [FA]2 [FA]2 [EG]2 [EG]2 | [Ec]2 [DB]2- [DB][DB] [^Fc]2 | %7
w: |||
 [^Fc]2 [Gd]6 | G2 [Ge]2- [Ge][Ge] [Ge]2 | [Fd]2 [Ec]2 [Ec]2 [Ec]2 | [EG]2 [FA]2- [FA][Fc] [Fc]2 | %11
w: ||||
 [FA]2 [EG]6 | [EG]2 [Ec]2- [Ec][Ec] [Gd]2 | [Ge]2 [Ff]2 [FA]2 [Fd]2 | %14
w: |||
 [Fc]2 [FB]2- [FB][FB] [FA]2 | [FB]2 [Ec]6 | [Ge]>[Fd] [Ec][Ec] [Ec][EG][FA][Fc] | %17
w: |||
 [Fc][FA] [EG]4 [CE]2 | [CE]>[DF] [EG][Gc] [Gc][Gd][Ge][Ge] | [Gd][^Fc] [Gd]6 | %20
w: |||
 [Ge]>[Fd] [Ec][Ec] [Ec][EG][FA][Fc] | [Fc][FA] [EG]4 [CE]2 | [Gc]>[Ad] [Ge][Ge] [Fd][Ec][Fd][Fd] | %23
w: |||
 [Ec][DB] [Ec]6- | [Ec]2 z2 z4 |] %25
w: ||
V:2
 [C,G,]>[C,G,] [C,C]2 [C,G,]2 [C,G,]2 | [C,G,]2 [D,G,]2 [D,G,]4 | %2
 [G,,G,]2 [G,,G,]2 [G,,G,]2 [G,,G,]2 | [G,,G,]2 [C,G,]6 | [C,C]2 [F,C]2- [F,C][F,A,] [F,A,]2 | %5
 [F,C]2 [C,C]2 [C,C]2 [C,C]2 | [C,G,]2 [D,G,]2- [D,G,][D,G,] [D,A,]2 | [D,A,]2 [G,B,]6 | %8
 [G,B,]2 [C,C]2- [C,C][C,C] [C,C]2 | [C,G,]2 [C,G,]2 [C,G,]2 [C,G,]2 | %10
 [C,C]2 [F,C]2- [F,C][F,A,] [F,A,]2 | [F,C]2 [C,C]6 | [C,C]2 [C,G,]2- [C,G,]C [B,D]2 | %13
 [_B,C]2 [A,C]2 [F,C]2 [F,A,]2 | [F,A,]2 [G,B,]2- [G,B,][G,,G,] [G,,G,]2 | [G,,G,]2 [C,G,]6 | %16
 [C,C]>[C,G,] [C,G,][C,G,] [C,G,][C,C][F,C][F,A,] | [F,A,][F,C] [C,C]4 [C,G,]2 | %18
 [C,G,]>[C,G,] [C,C][E,C] [E,C][G,B,][K:treble]CC | [B,D][A,D] [G,B,]6 | %20
 G,>G, [C,G,][C,G,] [C,G,][C,C][F,C][F,A,] | [F,A,][F,C] [C,C]4 [C,G,]2 | %22
 [E,C]>F, [G,C][G,C] G,G,[G,,G,][G,,G,] | [G,,G,][G,,G,] [C,G,]6- | [C,G,]2 z2 z4 |] %25

